X:1
T:Title
%%score { ( 1 3 ) | ( 2 4 ) }
L:1/8
Q:1/4=108
M:3/4
K:C
V:1 treble nm="Grand Piano"
V:3 treble 
V:2 bass 
V:4 bass 
V:1
 [G,CE]2 [G,DF]2 [G,D^F]2 | [EG]2 z2 z2 | [CEG]4 [B,DF]2 | E6 | F2 A2 B2 | c2 B2 A2 | G2 F2 E2 | %7
w: J.~W.~Van~Deventer * *|||||||
 [B,D]6 | [CE]2 [DF]2 [_E^F]2 | [EG]2 [FA]2 [EG]2 | G4 F2 | E6 | [Ec]3 [EB] [_EA]2 | [DB]4 [CA]2 | %14
w: |||||||
 [B,G]6- | [B,G]4 z2 | d3 B A2 | G4 FG | [FA]6 | [EG]6 | G2 B3 A | G2 c2 [Gd]2 | [Ge]6- | [Ge]6 | %24
w: ||||||||||
 e3 _e =e2 | f2 e2 [G^c]2 | [Fd]6 | f6 |[M:15/16] e->eG- G3- G/c |[M:3/4] B2 e2 d2 | c6- | c4 z2 |] %32
w: ||||||||
V:2
 C,2 C,2 C,2 | z2 F2 C,2 | G,4 G,,2 | [C,G,C]6 | [F,A,C]2 [F,CF]2 [F,B,F]2 | %5
 [F,F]2- [F,B,F]2 [F,CF]2 | [E,C]2 [D,G,B,]2 [C,G,C]2 | [G,,G,]6 | [C,G,]2 [C,G,]2 [C,G,]2 | %9
 [C,C]4 [C,C]2 | [G,CE]4 [^G,B,D]2 | [A,C]6 | [A,,A,]3 [B,,^G,] [C,A,]2 | [D,G,]4 [D,^F,]2 | %14
 [G,,G,]6- | [G,,G,]4 z2 | [G,B,F]3 [G,DF] [G,B,F]2 | [G,CE]4 [G,B,D][K:bass][G,B,E] | [C,C]6 | %19
 [C,C]6 | [G,B,F]2 [G,DF]3[K:bass] [F,G,B,] | [E,G,C]2 [E,G,C]2 [D,B,]2 | [C,C]6 | z6 | %24
 [A,^CG]3 [A,=C^F] [A,^CG]2 | [A,DA]2 [A,^CG]2[K:bass] [A,,A,]2 | [D,A,]6 | [D,D]6 | %28
[M:15/16][K:treble] [G,CG]->[G,CG][G,CE]- [G,CE]3- [G,CE]/[G,_E] | %29
[M:3/4] [G,D]2 [G,CG]2[K:bass] [G,,B,F]2 | G,2 z2 z2 | z6 |] %32
V:3
 x6 | C2- [CA]2 [CEG]2 | x6 | x6 | x6 | x6 | x6 | x6 | x6 | x6 | x6 | x6 | x6 | x6 | x6 | x6 | x6 | %17
 x6 | x6 | x6 | x6 | x6 | x6 | B,6 | x6 | x6 | x6 | A4 ^G2 |[M:15/16] x15/2 |[M:3/4] x6 | %30
 E2 D2 F2 | E4 z2 |] %32
V:4
 x6 | C,4 z2 | x6 | x6 | x6 | A,2 z2 z2 | x6 | x6 | x6 | x6 | x6 | x6 | x6 | x6 | x6 | x6 | x6 | %17
 x5[K:bass] x | x6 | x6 | x5[K:bass] x | x6 | x6 | x6 | x6 | x4[K:bass] x2 | x6 | x6 | %28
[M:15/16][K:treble] x15/2 |[M:3/4] x4[K:bass] x2 | C,2- [C,-F,]2 [C,-^G,]2 | [C,G,]4 z2 |] %32

